svgs/thin/table-cells.svg

<svg xmlns="http://www.w3.org/2000/svg" viewBox="0 0 512 512"><!--! Font Awesome Pro 6.6.0 by @fontawesome - https://fontawesome.com License - https://fontawesome.com/license (Commercial License) Copyright 2024 Fonticons, Inc. --><path d="M352 48l0 128 144 0 0-80c0-26.5-21.5-48-48-48l-96 0zm-16 0L176 48l0 128 160 0 0-128zM160 48L64 48C37.5 48 16 69.5 16 96l0 80 144 0 0-128zM16 192l0 128 144 0 0-128L16 192zm0 144l0 80c0 26.5 21.5 48 48 48l96 0 0-128L16 336zM176 464l160 0 0-128-160 0 0 128zm176 0l96 0c26.5 0 48-21.5 48-48l0-80-144 0 0 128zM496 320l0-128-144 0 0 128 144 0zM0 96C0 60.7 28.7 32 64 32l384 0c35.3 0 64 28.7 64 64l0 320c0 35.3-28.7 64-64 64L64 480c-35.3 0-64-28.7-64-64L0 96zM176 320l160 0 0-128-160 0 0 128z"/></svg>

<svg xmlns="http://www.w3.org/2000/svg" viewBox="0 0 512 512"><!--! Font Awesome Pro 6.4.0 by @fontawesome - https://fontawesome.com License - https://fontawesome.com/license (Commercial License) Copyright 2023 Fonticons, Inc. --><path d="M352 48V176H496V96c0-26.5-21.5-48-48-48H352zm-16 0H176V176H336V48zM160 48H64C37.5 48 16 69.5 16 96v80H160V48zM16 192V320H160V192H16zm0 144v80c0 26.5 21.5 48 48 48h96V336H16zM176 464H336V336H176V464zm176 0h96c26.5 0 48-21.5 48-48V336H352V464zM496 320V192H352V320H496zM0 96C0 60.7 28.7 32 64 32H448c35.3 0 64 28.7 64 64V416c0 35.3-28.7 64-64 64H64c-35.3 0-64-28.7-64-64V96zM176 320H336V192H176V320z"/></svg>
